src/apps_keepassdroid.svg

<?xml version="1.0" encoding="UTF-8" standalone="no"?>
<svg
   xmlns:dc="http://purl.org/dc/elements/1.1/"
   xmlns:cc="http://creativecommons.org/ns#"
   xmlns:rdf="http://www.w3.org/1999/02/22-rdf-syntax-ns#"
   xmlns:svg="http://www.w3.org/2000/svg"
   xmlns="http://www.w3.org/2000/svg"
   xmlns:sodipodi="http://sodipodi.sourceforge.net/DTD/sodipodi-0.dtd"
   xmlns:inkscape="http://www.inkscape.org/namespaces/inkscape"
   width="192"
   height="192"
   version="1"
   id="svg16"
   sodipodi:docname="apps_keepassdroid.svg"
   inkscape:version="0.92.3 (2405546, 2018-03-11)">
  <metadata
     id="metadata22">
    <rdf:RDF>
      <cc:Work
         rdf:about="">
        <dc:format>image/svg+xml</dc:format>
        <dc:type
           rdf:resource="http://purl.org/dc/dcmitype/StillImage" />
      </cc:Work>
    </rdf:RDF>
  </metadata>
  <defs
     id="defs20">
    <filter
       inkscape:collect="always"
       style="color-interpolation-filters:sRGB"
       id="filter855"
       x="-0.048"
       width="1.096"
       y="-0.048"
       height="1.096">
      <feGaussianBlur
         inkscape:collect="always"
         stdDeviation="3.2"
         id="feGaussianBlur857" />
    </filter>
    <filter
       inkscape:collect="always"
       style="color-interpolation-filters:sRGB"
       id="filter851"
       x="-0.038940234"
       width="1.0778805"
       y="-0.062553612"
       height="1.1251072">
      <feGaussianBlur
         inkscape:collect="always"
         stdDeviation="1.2980078"
         id="feGaussianBlur853" />
    </filter>
  </defs>
  <sodipodi:namedview
     pagecolor="#ffffff"
     bordercolor="#666666"
     borderopacity="1"
     objecttolerance="10"
     gridtolerance="10"
     guidetolerance="10"
     inkscape:pageopacity="0"
     inkscape:pageshadow="2"
     inkscape:window-width="1920"
     inkscape:window-height="1018"
     id="namedview18"
     showgrid="false"
     inkscape:zoom="1"
     inkscape:cx="100.80699"
     inkscape:cy="96"
     inkscape:window-x="0"
     inkscape:window-y="32"
     inkscape:window-maximized="1"
     inkscape:current-layer="svg16" />
  <g
     id="g874"
     transform="matrix(6.6666667,0,0,6.8571576,42.666666,42.142842)"
     style="fill:#000000;enable-background:new">
    <g
       style="fill:#000000"
       id="g872"
       transform="translate(-347,251)" />
  </g>
  <rect
     width="160"
     height="160"
     x="-180"
     y="-176"
     rx="80"
     ry="80"
     transform="matrix(0,-1,-1,0,0,0)"
     id="rect837"
     style="opacity:0.2;fill:#000000;stroke-width:4.00020027;filter:url(#filter855)" />
  <rect
     style="fill:#587de6;stroke-width:4.00020027"
     id="rect4"
     transform="matrix(0,-1,-1,0,0,0)"
     ry="80"
     rx="80"
     y="-176"
     x="-176"
     height="160"
     width="160" />
  <path
     style="opacity:0.5;stroke-width:6.76124144"
     inkscape:connector-curvature="0"
     id="path8"
     d="m 95.999978,48.00001 c -16,0 -28,8.000246 -28,27.999832 v 12.00014 h -5.333333 c -3.693333,0 -6.666667,3.001171 -6.666667,6.800037 v 42.342831 c 0,3.79887 2.973334,6.85716 6.666667,6.85716 h 66.666665 c 3.69334,0 6.66667,-3.05829 6.66667,-6.85716 V 94.800019 c 0,-3.798866 -2.97333,-6.800037 -6.66667,-6.800037 h -5.33333 v -12.00014 c 0,-19.954329 -12,-27.977203 -28.000002,-27.977203 z m 0,12.000026 c 8.000002,0 16.000002,3.999986 16.000002,15.999806 v 12.00014 H 79.999978 v -12.00014 c 0,-12.000026 8,-15.999806 16,-15.999806 z"
     sodipodi:nodetypes="cscsssssssscsccssccss" />
  <path
     style="opacity:0.2;stroke-width:6.76124144;filter:url(#filter851)"
     d="m 95.999978,48.000023 c -16,0 -28,8.000414 -28,28 v 2 c 0,-19.999586 12,-28 28,-28 v 0.02344 c 16.000002,0 28.000002,8.022233 28.000002,27.976562 v -2.000002 c 0,-19.954329 -12,-27.976562 -28.000002,-27.976562 z M 62.665994,87.99961 c -3.693334,0 -6.666016,3.001915 -6.666016,6.800781 v 2 c 0,-3.798866 2.972682,-6.800781 6.666016,-6.800781 h 5.333984 v -2 z m 17.333984,0 v 2 h 32.000002 v -2 z m 44.000002,0 v 2 h 5.33398 c 3.69334,0 6.66602,3.001915 6.66602,6.800781 v -2 c 0,-3.798866 -3.03597,-7.481614 -6.66602,-6.800781 z"
     id="path834"
     inkscape:connector-curvature="0"
     sodipodi:nodetypes="csccccsccsscsccscccccccscssc" />
  <path
     inkscape:connector-curvature="0"
     style="opacity:0.2;fill:#ffffff;stroke-width:4.00020027"
     d="m 96,16 c -44.32,0 -80,35.68 -80,80 0,0.167244 0.0048,0.333003 0.0059,0.5 C 16.273741,52.412589 51.847244,17 96,17 140.15276,17 175.72626,52.412589 175.99414,96.5 175.99516,96.333003 176,96.167244 176,96 176,51.68 140.32,16 96,16 Z"
     id="rect859" />
  <path
     style="opacity:0.1;fill:#ffffff;stroke-width:6.76124144"
     d="m 95.999978,59.999996 c -8,0 -16,3.999974 -16,16 v 1 c 0,-12.000026 8,-16 16,-16 8.000002,0 16.000002,4.00018 16.000002,16 v -1 c 0,-11.99982 -8,-16 -16.000002,-16 z m -40,77.142584 v 1 c 0,3.79886 2.972682,6.85742 6.666016,6.85742 h 66.667966 c 3.69334,0 6.66602,-3.05856 6.66602,-6.85742 v -1 c 0,3.79886 -2.97268,6.85742 -6.66602,6.85742 H 62.665994 c -3.693334,0 -6.666016,-3.05856 -6.666016,-6.85742 z"
     id="path885"
     inkscape:connector-curvature="0" />
  <g
     id="g895"
     transform="matrix(6.6666667,0,0,6.8571576,42.666666,40.142842)"
     style="fill:#ffffff;enable-background:new">
    <g
       style="fill:#ffffff"
       id="g893"
       transform="translate(-347,251)" />
  </g>
</svg>

<?xml version="1.0" encoding="UTF-8" standalone="no"?>
<svg
   xmlns:dc="http://purl.org/dc/elements/1.1/"
   xmlns:cc="http://creativecommons.org/ns#"
   xmlns:rdf="http://www.w3.org/1999/02/22-rdf-syntax-ns#"
   xmlns:svg="http://www.w3.org/2000/svg"
   xmlns="http://www.w3.org/2000/svg"
   xmlns:sodipodi="http://sodipodi.sourceforge.net/DTD/sodipodi-0.dtd"
   xmlns:inkscape="http://www.inkscape.org/namespaces/inkscape"
   width="192"
   height="192"
   version="1"
   id="svg16"
   sodipodi:docname="apps_keepassdroid.svg"
   inkscape:version="0.92.3 (2405546, 2018-03-11)">
  <metadata
     id="metadata22">
    <rdf:RDF>
      <cc:Work
         rdf:about="">
        <dc:format>image/svg+xml</dc:format>
        <dc:type
           rdf:resource="http://purl.org/dc/dcmitype/StillImage" />
      </cc:Work>
    </rdf:RDF>
  </metadata>
  <defs
     id="defs20">
    <filter
       inkscape:collect="always"
       style="color-interpolation-filters:sRGB"
       id="filter855"
       x="-0.048"
       width="1.096"
       y="-0.048"
       height="1.096">
      <feGaussianBlur
         inkscape:collect="always"
         stdDeviation="3.2"
         id="feGaussianBlur857" />
    </filter>
    <filter
       inkscape:collect="always"
       style="color-interpolation-filters:sRGB"
       id="filter881"
       x="-0.019320117"
       width="1.0386402"
       y="-0.031671816"
       height="1.0633436">
      <feGaussianBlur
         inkscape:collect="always"
         stdDeviation="0.64400391"
         id="feGaussianBlur883" />
    </filter>
  </defs>
  <sodipodi:namedview
     pagecolor="#ffffff"
     bordercolor="#666666"
     borderopacity="1"
     objecttolerance="10"
     gridtolerance="10"
     guidetolerance="10"
     inkscape:pageopacity="0"
     inkscape:pageshadow="2"
     inkscape:window-width="1920"
     inkscape:window-height="1018"
     id="namedview18"
     showgrid="false"
     inkscape:zoom="1"
     inkscape:cx="96"
     inkscape:cy="96"
     inkscape:window-x="0"
     inkscape:window-y="32"
     inkscape:window-maximized="1"
     inkscape:current-layer="svg16" />
  <rect
     width="160"
     height="160"
     x="-180"
     y="-176"
     rx="80"
     ry="80"
     transform="matrix(0,-1,-1,0,0,0)"
     id="rect837"
     style="opacity:0.2;fill:#000000;stroke-width:4.00020027;filter:url(#filter855)" />
  <rect
     style="fill:#587de6;stroke-width:4.00020027"
     id="rect4"
     transform="matrix(0,-1,-1,0,0,0)"
     ry="80"
     rx="80"
     y="-176"
     x="-176"
     height="160"
     width="160" />
  <g
     id="g12"
     transform="matrix(6.6666667,0,0,6.8571576,42.666666,40.142842)"
     style="enable-background:new">
    <g
       id="g10"
       transform="translate(-347,251)">
      <path
         style="opacity:0.5"
         inkscape:connector-curvature="0"
         id="path8"
         d="m 355,-250 c -2.4,0 -4.2,1.1667 -4.2,4.0833 v 1.75 H 350 c -0.554,0 -1,0.43767 -1,0.99167 v 6.175 c 0,0.554 0.446,1 1,1 h 10 c 0.554,0 1,-0.446 1,-1 v -6.175 c 0,-0.554 -0.446,-0.99167 -1,-0.99167 h -0.8 v -1.75 c 0,-2.91 -1.8,-4.08 -4.2,-4.08 z m 0,1.75 c 1.2,0 2.4,0.58333 2.4,2.3333 v 1.75 h -4.8 v -1.75 c 0,-1.75 1.2,-2.3333 2.4,-2.3333 z" />
    </g>
  </g>
  <path
     style="fill:#ffffff;stroke-width:4.00020027;opacity:0.2"
     d="M 96 16 C 51.68 16 16 51.68 16 96 C 16 96.167244 16.004845 96.333003 16.005859 96.5 C 16.273741 52.412589 51.847244 17 96 17 C 140.15276 17 175.72626 52.412589 175.99414 96.5 C 175.99516 96.333003 176 96.167244 176 96 C 176 51.68 140.32 16 96 16 z "
     id="rect859" />
  <g
     style="fill:#000000;enable-background:new"
     transform="matrix(6.6666667,0,0,6.8571576,42.666666,40.142842)"
     id="g868">
    <g
       transform="translate(-347,251)"
       id="g866"
       style="fill:#000000">
      <path
         style="opacity:0.2;fill:#000000;stroke-width:6.76124144;filter:url(#filter881)"
         d="M 96,48 C 80,48 68,56.000414 68,76 v 2 C 68,58.000414 80,50 96,50 v 0.02344 c 16,0 28,8.022233 28,27.976562 V 76 C 124,56.045671 112,48.023438 96,48.023438 Z M 62.666016,88 C 58.972682,88 56,91.001916 56,94.800781 v 2 C 56,93.001916 58.972682,90 62.666016,90 H 68 V 88 Z M 80,88 v 2 h 32 v -2 z m 44,0 v 2 h 5.33398 C 133.02732,90 136,93.001916 136,96.800781 v -2 C 136,91.001916 133.02732,88 129.33398,88 Z"
         transform="matrix(0.15,0,0,0.14583302,340.6,-256.99998)"
         id="path864"
         inkscape:connector-curvature="0" />
    </g>
  </g>
  <g
     id="g874"
     transform="matrix(6.6666667,0,0,6.8571576,42.666666,42.142842)"
     style="fill:#000000;enable-background:new">
    <g
       style="fill:#000000"
       id="g872"
       transform="translate(-347,251)" />
  </g>
  <g
     style="fill:#ffffff;enable-background:new"
     transform="matrix(6.6666667,0,0,6.8571576,42.666666,41.142842)"
     id="g889">
    <g
       transform="translate(-347,251)"
       id="g887"
       style="fill:#ffffff">
      <path
         style="opacity:0.2;fill:#ffffff;stroke-width:6.76124144"
         d="m 96,60 c -8,0 -16,3.999974 -16,16 v 1 c 0,-12.000026 8,-16 16,-16 8,0 16,4.00018 16,16 V 76 C 112,64.00018 104,60 96,60 Z m -40,77.14258 v 1 C 56,141.94144 58.972682,145 62.666016,145 H 129.33398 C 133.02732,145 136,141.94144 136,138.14258 v -1 C 136,140.94144 133.02732,144 129.33398,144 H 62.666016 C 58.972682,144 56,140.94144 56,137.14258 Z"
         transform="matrix(0.15,0,0,0.14583302,340.6,-257.14582)"
         id="path885"
         inkscape:connector-curvature="0" />
    </g>
  </g>
  <g
     id="g895"
     transform="matrix(6.6666667,0,0,6.8571576,42.666666,40.142842)"
     style="fill:#ffffff;enable-background:new">
    <g
       style="fill:#ffffff"
       id="g893"
       transform="translate(-347,251)" />
  </g>
</svg>
